!!!SOCIAL_FUNCTION:	songs for children
!!!PDT:	1943
!!!OTL: No_76_Song_to_a_Little_Girl.krn
!!!REG: British Columbia
**kern	**kern
*staff2	*staff1
=1-	=1-
*clefF4	*clefF4
*k[f#c#g#d#a#]	*k[f#c#g#d#a#]
*M2/4	*M2/4
4GG#/	4r
4GG#/	8.r
.	16d#\
=2!|:	=2!|:
4GG#/	4f#\
4GG#/	8d#\L
.	8e\J
=3	=3
4GG#/	4f#\
4GG#/	4d#\
=4	=4
2r	8d#\L
.	8c#\J
.	8B\L
.	8c#\J
=5||	=5||
*M3/4	*M3/4
2.r	16B\LK
.	8.G#\J
.	4G#\
.	8r
.	8d#\
=6||	=6||
*M2/4	*M2/4
2r	8d#\L
.	8d#\J
.	8c#\L
.	8f#\J
=7||	=7||
*M3/4	*M3/4
2.r	[2d#\
.	8.d#\L]
.	16e\Jk
=8||	=8||
*M2/4	*M2/4
2r	4d#\
.	4c#\
=9||	=9||
*M3/4	*M3/4
2.r	8B\L
.	[8G#\J
.	2G#\]
=10||	=10||
*M2/4	*M2/4
2r	4G#\
.	8G#\
.	16r
.	16d#\
=11	=11
2r	8.d#\L
.	16c#\Jk
.	8B\L
.	8c#\J
=12	=12
2r	[2d#\
=13	=13
2r	4d#\]
.	4c#\
=14||	=14||
*M3/4	*M3/4
2.r	(8.d#\L
.	16c#\Jk
.	(2B\)
=15	=15
2.r	4B\)
.	4r
.	4c#\
=16	=16
2.r	4G#\
.	[2G#\
=17||	=17||
*M2/4	*M2/4
2r	4G#\]
.	4r
=18	=18
2r	4G#\
.	4B\
==:|!	==:|!
*-	*-
